src/assets/logo/twitch.svg

<?xml version="1.0" encoding="UTF-8" standalone="no"?><!DOCTYPE svg PUBLIC "-//W3C//DTD SVG 1.1//EN" "http://www.w3.org/Graphics/SVG/1.1/DTD/svg11.dtd"><svg width="100%" height="100%" viewBox="0 0 540 200" version="1.1" xmlns="http://www.w3.org/2000/svg" xmlns:xlink="http://www.w3.org/1999/xlink" xml:space="preserve" xmlns:serif="http://www.serif.com/" style="fill-rule:evenodd;clip-rule:evenodd;stroke-linejoin:round;stroke-miterlimit:1.41421;"><g id="twitch"><path id="path3373" d="M500.468,75.17l-19.317,-19.306l-35.886,0l0,-24.832l-30.366,0l0,113.107l30.366,0l0,-57.936l24.837,0l0,57.936l30.366,0l0,-68.969Zm-96.602,-19.306l-46.921,0l-19.322,19.306l0,49.654l19.322,19.315l46.921,0l0,-30.342l-35.885,0l0,-27.594l35.885,0l0,-30.339Zm-77.283,0l-24.837,0l0,-24.832l-30.366,0l0,93.792l19.322,19.315l35.881,0l0,-30.342l-24.837,0l0,-27.594l24.837,0l0,-30.339Zm-66.243,-24.832l-30.358,0l0,13.798l30.358,0l0,-13.798Zm0,24.832l-30.358,0l0,88.274l30.358,0l0,-88.274Zm-41.398,0l-30.36,0l0,57.933l-11.038,0l0,-57.933l-30.361,0l0,57.933l-11.037,0l0,-57.933l-30.366,0l0,88.275l93.845,0l19.317,-19.315l0,-68.96Zm-124.202,0l-24.838,0l0,-24.832l-30.36,0l0,93.792l19.32,19.315l35.878,0l0,-30.342l-24.838,0l0,-27.594l24.838,0l0,-30.339Zm416.76,13.788l0,82.759l-41.398,27.589l-27.598,0l0,-13.798l-19.32,13.798l-24.837,0l0,-13.798l-13.797,13.798l-44.162,0l-13.805,-13.798l-2.763,13.798l-38.635,0l-15.799,-13.798l-0.885,13.798l-43.792,0l-1.548,-13.798l-11.855,13.798l-66.887,0l-13.802,-5.518l0,5.518l-35.877,0l-41.402,-24.834l-24.838,-24.816l0,-110.35l52.444,0l24.836,24.83l113.162,0l0,-24.83l93.84,0l0,24.83l24.841,0l0,13.79l13.805,-13.79l27.594,0l24.844,-24.83l52.44,0l0,24.83l30.362,0l24.832,24.822Z" style="fill:#a0a0a0;"/></g></svg>

<?xml version="1.0" encoding="UTF-8" standalone="no"?>
<!DOCTYPE svg PUBLIC "-//W3C//DTD SVG 1.1//EN" "http://www.w3.org/Graphics/SVG/1.1/DTD/svg11.dtd">
<svg width="100%" height="100%" viewBox="0 0 540 200" version="1.1" xmlns="http://www.w3.org/2000/svg" xmlns:xlink="http://www.w3.org/1999/xlink" xml:space="preserve" xmlns:serif="http://www.serif.com/" style="fill-rule:evenodd;clip-rule:evenodd;stroke-linejoin:round;stroke-miterlimit:2;">
    <g id="twitch">
        <path id="path3373" d="M500.468,75.17L481.151,55.864L445.265,55.864L445.265,31.032L414.899,31.032L414.899,144.139L445.265,144.139L445.265,86.203L470.102,86.203L470.102,144.139L500.468,144.139L500.468,75.17ZM403.866,55.864L356.945,55.864L337.623,75.17L337.623,124.824L356.945,144.139L403.866,144.139L403.866,113.797L367.981,113.797L367.981,86.203L403.866,86.203L403.866,55.864ZM326.583,55.864L301.746,55.864L301.746,31.032L271.38,31.032L271.38,124.824L290.702,144.139L326.583,144.139L326.583,113.797L301.746,113.797L301.746,86.203L326.583,86.203L326.583,55.864ZM260.34,31.032L229.982,31.032L229.982,44.83L260.34,44.83L260.34,31.032ZM260.34,55.864L229.982,55.864L229.982,144.138L260.34,144.138L260.34,55.864ZM218.942,55.864L188.582,55.864L188.582,113.797L177.544,113.797L177.544,55.864L147.183,55.864L147.183,113.797L136.146,113.797L136.146,55.864L105.78,55.864L105.78,144.139L199.625,144.139L218.942,124.824L218.942,55.864ZM94.74,55.864L69.902,55.864L69.902,31.032L39.542,31.032L39.542,124.824L58.862,144.139L94.74,144.139L94.74,113.797L69.902,113.797L69.902,86.203L94.74,86.203L94.74,55.864ZM511.5,69.652L511.5,152.411L470.102,180L442.504,180L442.504,166.202L423.184,180L398.347,180L398.347,166.202L384.55,180L340.388,180L326.583,166.202L323.82,180L285.185,180L269.386,166.202L268.501,180L224.709,180L223.161,166.202L211.306,180L144.419,180L130.617,174.482L130.617,180L94.74,180L53.338,155.166L28.5,130.35L28.5,20L80.944,20L105.78,44.83L218.942,44.83L218.942,20L312.782,20L312.782,44.83L337.623,44.83L337.623,58.62L351.428,44.83L379.022,44.83L403.866,20L456.306,20L456.306,44.83L486.668,44.83L511.5,69.652Z" style="fill:rgb(208,208,208);"/>
    </g>
</svg>
